example/source/grunticon.svg

<svg xmlns="http://www.w3.org/2000/svg" width="100" height="100"><path fill="#473E12" d="M68.745 67.217v.063l11.401 3.056.002-.001v11.481c-.002 2.408 1.953 4.363 4.359 4.361 2.406 0 4.385-1.953 4.385-4.361v-18.185l-16.229-4.354-3.918 7.94z"/><path fill="#685938" d="M96.057 29.62l-12.936-8.601 13.667-21.265-17.102 17.915-1.789-4.072-2.017 8.03-19.097 19.76h-37.407c0-5.233-4.409-9.755-9.677-9.755-5.359 0-9.699 4.361-9.699 9.722v16.105h6.906v-15.947c0-2.154.522-5.497 3.589-5.497 3.115 0 3.57 2.898 3.587 5.372l-.004 4.384v19.149l-3.612 5.655v24.395c0 2.409 1.976 4.362 4.384 4.362 2.406 0 4.361-1.953 4.361-4.362v-21.122l4.823-7.588h34.542v28.71c0 2.409 1.955 4.362 4.361 4.362 2.408 0 4.385-1.953 4.385-4.362v-28.085l15.195-30.768 10.494 1.998c1.838.342 3.793-.499 4.768-2.237 1.253-2.192.457-5.009-1.722-6.258z"/><path fill="#E5235F" d="M83.121 21.019l13.667-21.265-17.102 17.915"/></svg>

<?xml version="1.0" encoding="utf-8"?>
<!-- Generator: Adobe Illustrator 15.0.0, SVG Export Plug-In . SVG Version: 6.00 Build 0)  -->
<!DOCTYPE svg PUBLIC "-//W3C//DTD SVG 1.1//EN" "http://www.w3.org/Graphics/SVG/1.1/DTD/svg11.dtd">
<svg version="1.1" id="Layer_1" xmlns="http://www.w3.org/2000/svg" xmlns:xlink="http://www.w3.org/1999/xlink" x="0px" y="0px"
	 width="100px" height="100px" viewBox="0 0 100 100" enable-background="new 0 0 100 100" xml:space="preserve">
<path fill="#473E12" d="M68.745,67.217v0.063l11.401,3.056l0.002-0.001v11.481c-0.002,2.408,1.953,4.363,4.359,4.361
	c2.406,0,4.385-1.953,4.385-4.361V63.631l-16.229-4.354L68.745,67.217z"/>
<path fill="#685938" d="M96.057,29.62l-12.936-8.601L96.788-0.246L79.686,17.669l-1.789-4.072l-2.017,8.03l-19.097,19.76H19.376
	c0-5.233-4.409-9.755-9.677-9.755C4.34,31.632,0,35.993,0,41.354v16.105h6.906c0,0,0-13.793,0-15.947
	c0-2.154,0.522-5.497,3.589-5.497c3.115,0,3.57,2.898,3.587,5.372l0,0l-0.004,4.384V64.92l-3.612,5.655V94.97
	c0,2.409,1.976,4.362,4.384,4.362c2.406,0,4.361-1.953,4.361-4.362V73.848l4.823-7.588h34.542v28.71
	c0,2.409,1.955,4.362,4.361,4.362c2.408,0,4.385-1.953,4.385-4.362V66.885l15.195-30.768l10.494,1.998
	c1.838,0.342,3.793-0.499,4.768-2.237C99.032,33.686,98.236,30.869,96.057,29.62z"/>
<path fill="#E5235F" d="M83.121,21.019L96.788-0.246L79.686,17.669"/>
</svg>
